X:19050
T:Stop The Cavalry
T:Rub-a-dub
T:Stockport Polka
R:Polka
C:Trad.
O:England
Z:Paul Hardy's Session Tunebook 2015 (see www.paulhardy.net). Creative Commons cc by-nc-sa licenced.
M:2/2
L:1/8
Q:1/2=90
K:G
Bc|"G"d2d2 dcB2|"D7" c2c2 cBA2|"G" B2B2 BAG2|"D7" AGFE D2Bc|"G"d2d2 dcB2|"D7" c2c2 cBA2|"G" BAG2 "D7"A2F2|"G"G6:|
|:G2|"D"AGFE D2D2|AGFE D2EF|"G"G2G2 "D7"A2A2|"G" BcBA B4|"D"AGFE D2D2|AGFE D2EF|"G"G2G2 "D7"A2F2|"G"G6:|

